Newaita/actions/22/gnumeric-object-list.svg

<svg height="22" viewBox="0 0 22 22" width="22" xmlns="http://www.w3.org/2000/svg"><g fill="#424242"><path d="m10.460938 9.496094h-7.277344c-.25 0-.453125-.203125-.453125-.457032v-.910156c0-.25.203125-.453125.453125-.453125h7.277344c.25 0 .453124.203125.453124.453125v.910156c0 .253907-.203124.457032-.453124.457032zm0 0"/><path d="m10.460938 4.492188h-7.277344c-.25 0-.453125-.203126-.453125-.453126v-.910156c0-.253906.203125-.457031.453125-.457031h7.277344c.25 0 .453124.203125.453124.457031v.910156c0 .25-.203124.453126-.453124.453126zm0 0"/><path d="m19.101562 15.636719h-6.367187l3.183594 4.546875zm0 0"/><path d="m10.460938 14.496094h-7.277344c-.25 0-.453125-.203125-.453125-.453125v-.910157c0-.25.203125-.453124.453125-.453124h7.277344c.25 0 .453124.203124.453124.453124v.910157c0 .25-.203124.453125-.453124.453125zm0 0"/><path d="m19.101562 6.539062h-6.367187l3.183594-4.546874zm0 0"/><path d="m10.460938 19.5h-7.277344c-.25 0-.453125-.203125-.453125-.453125v-.910156c0-.25.203125-.457031.453125-.457031h7.277344c.25 0 .453124.207031.453124.457031v.910156c0 .25-.203124.453125-.453124.453125zm0 0"/></g></svg>

<svg xmlns="http://www.w3.org/2000/svg" xmlns:xlink="http://www.w3.org/1999/xlink" width="22px" height="22px" viewBox="0 0 22 22" version="1.1">
<g id="surface1">
     <defs>
  <style id="current-color-scheme" type="text/css">
   .ColorScheme-Text { color:#424242; } .ColorScheme-Highlight { color:#eeeeee; }
  </style>
 </defs>
<path style="fill:currentColor" class="ColorScheme-Text" d="M 10.460938 9.496094 L 3.183594 9.496094 C 2.933594 9.496094 2.730469 9.292969 2.730469 9.039062 L 2.730469 8.128906 C 2.730469 7.878906 2.933594 7.675781 3.183594 7.675781 L 10.460938 7.675781 C 10.710938 7.675781 10.914062 7.878906 10.914062 8.128906 L 10.914062 9.039062 C 10.914062 9.292969 10.710938 9.496094 10.460938 9.496094 Z M 10.460938 9.496094 "/>
     <defs>
  <style id="current-color-scheme" type="text/css">
   .ColorScheme-Text { color:#424242; } .ColorScheme-Highlight { color:#eeeeee; }
  </style>
 </defs>
<path style="fill:currentColor" class="ColorScheme-Text" d="M 10.460938 4.492188 L 3.183594 4.492188 C 2.933594 4.492188 2.730469 4.289062 2.730469 4.039062 L 2.730469 3.128906 C 2.730469 2.875 2.933594 2.671875 3.183594 2.671875 L 10.460938 2.671875 C 10.710938 2.671875 10.914062 2.875 10.914062 3.128906 L 10.914062 4.039062 C 10.914062 4.289062 10.710938 4.492188 10.460938 4.492188 Z M 10.460938 4.492188 "/>
     <defs>
  <style id="current-color-scheme" type="text/css">
   .ColorScheme-Text { color:#424242; } .ColorScheme-Highlight { color:#eeeeee; }
  </style>
 </defs>
<path style="fill:currentColor" class="ColorScheme-Text" d="M 19.101562 15.636719 L 12.734375 15.636719 L 15.917969 20.183594 Z M 19.101562 15.636719 "/>
     <defs>
  <style id="current-color-scheme" type="text/css">
   .ColorScheme-Text { color:#424242; } .ColorScheme-Highlight { color:#eeeeee; }
  </style>
 </defs>
<path style="fill:currentColor" class="ColorScheme-Text" d="M 10.460938 14.496094 L 3.183594 14.496094 C 2.933594 14.496094 2.730469 14.292969 2.730469 14.042969 L 2.730469 13.132812 C 2.730469 12.882812 2.933594 12.679688 3.183594 12.679688 L 10.460938 12.679688 C 10.710938 12.679688 10.914062 12.882812 10.914062 13.132812 L 10.914062 14.042969 C 10.914062 14.292969 10.710938 14.496094 10.460938 14.496094 Z M 10.460938 14.496094 "/>
     <defs>
  <style id="current-color-scheme" type="text/css">
   .ColorScheme-Text { color:#424242; } .ColorScheme-Highlight { color:#eeeeee; }
  </style>
 </defs>
<path style="fill:currentColor" class="ColorScheme-Text" d="M 19.101562 6.539062 L 12.734375 6.539062 L 15.917969 1.992188 Z M 19.101562 6.539062 "/>
     <defs>
  <style id="current-color-scheme" type="text/css">
   .ColorScheme-Text { color:#424242; } .ColorScheme-Highlight { color:#eeeeee; }
  </style>
 </defs>
<path style="fill:currentColor" class="ColorScheme-Text" d="M 10.460938 19.5 L 3.183594 19.5 C 2.933594 19.5 2.730469 19.296875 2.730469 19.046875 L 2.730469 18.136719 C 2.730469 17.886719 2.933594 17.679688 3.183594 17.679688 L 10.460938 17.679688 C 10.710938 17.679688 10.914062 17.886719 10.914062 18.136719 L 10.914062 19.046875 C 10.914062 19.296875 10.710938 19.5 10.460938 19.5 Z M 10.460938 19.5 "/>
</g>
</svg>
